X:195
T:Micho's Tent (*) (reel) 
B:CRE2.190 (Thuas Staighre i bPuball)
F:file ID: cre.2/195mich_t
N:1:Micho Russell called this "Upstairs in a Tent" but that
name is used for another unrelated tune. This title is my idea!
N:2:B part may be doubled.
R:reel % A-B-A
M:C
Q:180
K:G
B2B2 A2AG|FDAd BDAF|DGGF G2g2|fddc ABcA|
B2B2 ABAG|FDAd BDAF|DGGF G2g2|1 fdcA BGGA:|\
[2 fdcA BGG2||
dggg gbag|fddd defd|dggf g2fg|a2ga bgg2|
bggf gbag|fdde f3g|a2af a2ag|fddc ABcA||
K:G

%%%

